src/assets/img/svg/doodle3.svg

<svg width="85" height="82" viewBox="0 0 85 82" fill="none" xmlns="http://www.w3.org/2000/svg">
<path d="M1.78857 30.2588C12.0507 24.2187 18.0614 13.1063 16.9179 2.375C14.8362 12.7251 21.7558 23.9255 32.8389 28.1477C26.5057 30.1415 22.1077 35.3605 20.0845 40.9607C18.0614 46.5316 18.0907 52.4837 18.1201 58.3478C19.3222 47.6458 11.7869 36.6506 1.81789 30.2881L1.78857 30.2588Z" stroke="#FAB758" stroke-width="0.25" stroke-miterlimit="10"/>
<path d="M18.0907 59.7844C18.0907 59.7844 18.0321 59.7844 18.0027 59.7844C17.2404 59.7551 16.654 59.1101 16.654 58.3477C16.654 56.8817 16.654 55.3864 16.654 53.891C15.6571 44.743 8.50291 36.2694 0.996877 31.4902C0.586391 31.2263 0.322507 30.7572 0.351827 30.2587C0.351827 29.7603 0.615711 29.2912 1.05552 29.0566C8.70816 24.5413 13.9272 16.9473 15.2759 9.00141C14.9827 6.71442 15.0414 4.3981 15.5105 2.11111C15.6571 1.40742 16.2728 0.938288 16.9765 0.967609C17.6802 0.996929 18.2666 1.55402 18.3253 2.22839C18.5598 4.42742 18.5012 6.6851 18.1787 8.88413C19.3515 16.5075 25.1863 23.7203 33.308 26.8283C33.8651 27.0335 34.2463 27.5906 34.217 28.2063C34.217 28.822 33.8065 29.3498 33.2201 29.5257C27.9131 31.197 23.4857 35.6537 21.4039 41.4592C19.9672 45.4174 19.6154 49.6102 19.5274 53.8031C19.674 55.3571 19.674 56.911 19.5274 58.4943C19.4394 59.2274 18.8237 59.7551 18.12 59.7551L18.0907 59.7844ZM4.39805 30.3174C9.67573 34.129 14.6016 39.5827 17.3577 45.7693C17.6509 43.9807 18.0907 42.2215 18.7358 40.4916C20.7002 35.038 24.5119 30.5813 29.2325 28.1184C23.3977 25.0397 18.9996 20.1432 16.742 14.543C14.5136 20.7003 10.1742 26.3298 4.39805 30.2881V30.3174Z" fill="#FAB758" stroke="#FAB758" stroke-width="0.25" stroke-miterlimit="10"/>
<path d="M55.5327 58.5822C64.6807 54.5653 70.2809 45.7985 69.0788 37.4128C70.7793 45.6812 73.6821 55.269 83.2112 58.5822C78.2854 59.7843 74.6203 63.2735 72.6559 67.1145C70.6621 70.9554 70.1343 75.1483 69.6065 79.3118C70.8966 70.1931 63.6838 60.7226 55.5327 58.6115V58.5822Z" stroke="#FAB758" stroke-width="0.25" stroke-miterlimit="10"/>
<path d="M69.6067 80.7193C69.6067 80.7193 69.4894 80.7193 69.4015 80.7193C68.6098 80.602 68.0821 79.8983 68.17 79.1066C68.17 78.96 68.1993 78.7841 68.2287 78.6375C69.1669 70.1052 62.218 61.8076 55.1517 59.9604C54.5653 59.8138 54.1255 59.286 54.0962 58.6996C54.0376 58.0839 54.3894 57.5268 54.9465 57.2629C63.5374 53.4806 68.7857 45.3881 67.6423 37.6182C67.525 36.8559 68.0527 36.1228 68.8151 36.0056C69.5774 35.859 70.3104 36.3574 70.457 37.1197C72.2456 45.7986 75.0603 54.2429 83.6512 57.2336C84.2376 57.4388 84.6481 58.0252 84.6188 58.641C84.5895 59.286 84.1497 59.8138 83.5339 59.9604C79.4584 60.9573 75.9399 63.8014 73.9168 67.7596C72.1283 71.2487 71.5712 75.1484 71.0727 78.96C71.0727 79.136 71.0434 79.3119 71.0141 79.4878C70.9261 80.1915 70.3104 80.7193 69.6067 80.7193ZM59.0514 58.3771C63.6253 60.6054 67.8182 64.9448 69.8706 70.1639C70.2518 68.9031 70.7502 67.6717 71.3953 66.4402C73.2131 62.8924 76.0572 60.107 79.4584 58.4357C74.4446 55.5623 71.6005 50.7537 69.7533 45.5054C68.0821 50.6365 64.2997 55.2691 59.0514 58.3771Z" fill="#FAB758" stroke="#FAB758" stroke-width="0.25" stroke-miterlimit="10"/>
</svg>

<svg width="85" height="82" viewBox="0 0 85 82" fill="none" xmlns="http://www.w3.org/2000/svg"><path d="M1.789 30.259C12.05 24.219 18.06 13.106 16.918 2.375c-2.082 10.35 4.838 21.55 15.92 25.773-6.332 1.994-10.73 7.213-12.754 12.813-2.023 5.57-1.993 11.523-1.964 17.387 1.202-10.702-6.333-21.697-16.302-28.06l-.03-.03z" stroke="#FAB758" stroke-width=".25" stroke-miterlimit="10"/><path d="M18.09 59.784h-.087c-.763-.029-1.349-.674-1.349-1.436V53.89c-.997-9.148-8.151-17.622-15.657-22.4a1.386 1.386 0 01-.645-1.232c0-.499.264-.968.704-1.202C8.708 24.54 13.927 16.947 15.276 9a20.939 20.939 0 01.235-6.89A1.424 1.424 0 0116.977.968c.703.029 1.29.586 1.348 1.26a26.634 26.634 0 01-.146 6.656c1.173 7.623 7.007 14.836 15.129 17.944.557.206.938.763.909 1.378a1.38 1.38 0 01-.997 1.32c-5.307 1.671-9.734 6.128-11.816 11.933-1.437 3.958-1.789 8.151-1.877 12.344a25.074 25.074 0 010 4.691 1.423 1.423 0 01-1.407 1.261l-.03.03zM4.399 30.317c5.278 3.812 10.204 9.266 12.96 15.452a27.979 27.979 0 011.378-5.277c1.964-5.454 5.776-9.91 10.497-12.374C23.398 25.04 19 20.143 16.742 14.543 14.514 20.7 10.174 26.33 4.398 30.288v.03z" fill="#FAB758" stroke="#FAB758" stroke-width=".25" stroke-miterlimit="10"/><path d="M55.533 58.582c9.148-4.017 14.748-12.784 13.546-21.17 1.7 8.27 4.603 17.857 14.132 21.17-4.926 1.202-8.59 4.691-10.555 8.533-1.994 3.84-2.522 8.033-3.05 12.197 1.29-9.119-5.922-18.59-14.073-20.7v-.03z" stroke="#FAB758" stroke-width=".25" stroke-miterlimit="10"/><path d="M69.607 80.72H69.4a1.446 1.446 0 01-1.231-1.613c0-.147.03-.323.059-.47.938-8.532-6.011-16.83-13.077-18.677-.587-.146-1.026-.674-1.056-1.26-.058-.616.293-1.173.85-1.437 8.591-3.782 13.84-11.875 12.696-19.645a1.42 1.42 0 011.173-1.612 1.401 1.401 0 011.642 1.114c1.789 8.679 4.603 17.123 13.194 20.114.587.205.997.791.968 1.407a1.408 1.408 0 01-1.085 1.32c-4.076.996-7.594 3.84-9.617 7.799-1.789 3.489-2.346 7.388-2.844 11.2 0 .176-.03.352-.059.528a1.422 1.422 0 01-1.407 1.231zM59.05 58.376c4.574 2.228 8.767 6.568 10.82 11.787.38-1.26.88-2.492 1.524-3.724 1.818-3.548 4.662-6.333 8.063-8.004-5.013-2.874-7.858-7.682-9.705-12.93-1.67 5.13-5.453 9.763-10.702 12.871z" fill="#FAB758" stroke="#FAB758" stroke-width=".25" stroke-miterlimit="10"/></svg>
